X:1
T:Lord Breadalbane's March
B:Songs of Scotland Without Words, J T Surenne
Z:Nigel Gatherer <gatherer:argonet.co.uk>
M:6/8
L:1/8
K:D
d \
|: "D"A>BA f>ed | "G"B>AB d>BG | "D"A>BA f>ed | "Em"B>ee "A7"e2d | "D"A>BA f>ed |
| "G"B>AB d>BG | "D"A>BA f>ed | "Em"B>ee "A7"e2d || "Em"e>fe a>fe | "D"f>ef f>ed | "Em"e>fe a<fe |
| "A7"e>fe e2d | "Em"e>fe a>fe | "D"f>ef f>ed | "D"a>fe f>ed | "Em"Bee "A7"e2d :| "D"Hd6 |]
